!!!COM: Palestrina, Giovanni Perluigi da
!!!OPR: Beatus Laurentius
!!!OTL: Credo
**kern	**kern	**kern	**kern	**kern
*Ibass	*Itenor	*Itenor	*Icalto	*Icant
!Bassus	!Tenor 2	!Tenor 1	!Altus	!Cantus
*clefF4	*clefGv2	*clefGv2	*clefG2	*clefG2
*k[]	*k[]	*k[]	*k[]	*k[]
*G:mix	*G:mix	*G:mix	*G:mix	*G:mix
*M4/2	*M4/2	*M4/2	*M4/2	*M4/2
=1	=1	=1	=1	=1
0G	0d	0B	0g	0r
=2	=2	=2	=2	=2
2C	1e	2.c	1g	0r
2.c	.	.	.	.
.	.	4d	.	.
.	2.A	1e	1cc	.
4B	.	.	.	.
4A	.	.	.	.
4G	4B	.	.	.
=3	=3	=3	=3	=3
1F	1c	1f	1a	0r
2G	2B	2d	2g	.
2F	2A	2d	[2a	.
=4	=4	=4	=4	=4
1G	2.B	0d	4a]	0dd
.	.	.	4g	.
.	.	.	1g	.
.	8A	.	.	.
.	8G	.	.	.
1D	1A	.	.	.
.	.	.	2f#	.
=5	=5	=5	=5	=5
2r	2G	2B	2g	1dd
2G	1d	2B	2g	.
1G	.	1d	1b	1gg
.	[2g	.	.	.
=6	=6	=6	=6	=6
4C	2g]	2c	2cc	2ee
4D	.	.	.	.
4E	2g	2G	2cc	2ee
4F	.	.	.	.
2G	1g	2B	2b	2dd
2C	.	2c	2e	[2ee
=7	=7	=7	=7	=7
2D	2f	0A	0a	4ee]
.	.	.	.	4dd
2D	2f	.	.	1dd
1A	1e	.	.	.
.	.	.	.	2cc#
=8	=8	=8	=8	=8
1D	1d	2A	2f#	2dd
.	.	1d	1a	1dd
1r	1r	.	.	.
.	.	2e	2g	2b
=9	=9	=9	=9	=9
0r	0r	2f#	2a	2dd
.	.	2g	2b	2dd
.	.	1c	1cc	1ee
=10	=10	=10	=10	=10
0r	1r	2G	2b	2dd
.	.	2A	2a	2cc
.	2r	1e	2g	1b
.	[2g	.	2b	.
=11	=11	=11	=11	=11
0r	2g]	2.c	1cc	2.ee
.	2e	.	.	.
.	.	4c	.	4ee
.	2g	2c	2.cc	2ee
.	2a	2A	.	2ff
.	.	.	4cc	.
=12	=12	=12	=12	=12
1r	2g	2c	2cc	2ee
.	2f	2d	2a	2dd
2r	2e	2A	2a	2cc#
[2A	[2e	[2c#	[2a	[2ee
=13	=13	=13	=13	=13
2A]	2e]	2c#]	2a]	2ee]
2A	2e	2c#	2a	2ee
2A	2c#	2e	2a	2ee
2D	2d	2d	2a	2ff
=14	=14	=14	=14	=14
2A	2e	2c#	2.a	2ee
2D	2f#	2d	.	2dd
.	.	.	4a	.
1G	1g	1d	1b	1dd
=15	=15	=15	=15	=15
1C	1g	1c	1cc	1ee
2C	1e	1c	1g	1cc
[2c	.	.	.	.
=16	=16	=16	=16	=16
2c]	0d	0G	0g	0dd
4B	.	.	.	.
4A	.	.	.	.
1B	.	.	.	.
=17	=17	=17	=17	=17
1c	2c	0g	2e	2ee
.	2.c	.	2.cc	2.ee
1C	.	.	.	.
.	4c	.	4cc	4ee
.	2e	.	2cc	2ee
=18	=18	=18	=18	=18
1r	1g	0r	1b	2dd
.	.	.	.	1ee
2r	[1a	.	[1cc	.
[2F	.	.	.	[2ff
=19	=19	=19	=19	=19
4F]	1a]	0r	0cc]	2ff]
4F	.	.	.	.
2A	.	.	.	4ee
.	.	.	.	4dd
2c	1g	.	.	1ee
2c	.	.	.	.
=20	=20	=20	=20	=20
2d	2f#	0r	2a	1dd
2G	1g	.	2b	.
2d	.	.	2.a	2.dd
2d	2f#	.	.	.
.	.	.	4a	4dd
=21	=21	=21	=21	=21
1G	2g	1r	1b	2dd
.	1g	.	.	1b
1r	.	2.e	1r	.
.	2e	.	.	2g
.	.	4e	.	.
=22	=22	=22	=22	=22
0r	2f#	2d	0r	2a
.	2g	2B	.	2b
.	1a	1A	.	1cc
=23	=23	=23	=23	=23
2r	2g	2e	2r	1b
2.G	2.g	2.d	2.b	.
.	.	.	.	1r
4G	4g	4d	4b	.
2E	2g	2e	2g	.
=24	=24	=24	=24	=24
2F	2f	2c	2a	0r
2G	2d	2g	2b	.
2A	2.c	2e	2.cc	.
2A	.	2f#	.	.
.	4c	.	4cc	.
=25	=25	=25	=25	=25
1G	1d	2g	2b	2r
.	.	2g	2g	2b
1r	1r	2f	2a	2cc
.	.	2d	2b	2dd
=26	=26	=26	=26	=26
1r	1r	1c	1cc	1ee
2r	2r	2g	1b	2dd
2G	2B	2d	.	2g
=27	=27	=27	=27	=27
2F	2c	2f	0r	2a
2D	2d	2f	.	2b
2.C	2.e	2.g	.	2.cc
4C	4e	4g	.	4cc
=28	=28	=28	=28	=28
1G	2d	1g	2r	2b
.	1g	.	1b	1dd
1r	.	1r	.	.
.	2e	.	2g	2ee
=29	=29	=29	=29	=29
1r	1d	0r	1a	1ff
2r	2c	.	2cc	2ee
2c	2c	.	2cc	2ee
=30	=30	=30	=30	=30
2c	2e	1r	2.c	2ee
2A	2f	.	.	2cc
.	.	.	4d	.
[1G	2g	2r	2e	4b
.	.	.	.	4a
.	4G	2g	[2d	4b
.	4G	.	.	4cc
=31	=31	=31	=31	=31
0G]	2B	2g	2d]	2dd
.	2c	2e	2.g	1cc
.	2d	1d	.	.
.	.	.	4f	.
.	2g	.	2d	2b
=32	=32	=32	=32	=32
0C	2r	2c	2e	2cc
.	1g	1c	1cc	1ee
.	2g	2c	2cc	2ee
=33	=33	=33	=33	=33
0r	2g	2c	2cc	2ee
.	2g	2c	2cc	2ee
.	1g	1G	1b	1dd
=34	=34	=34	=34	=34
2r	2e	2A	2a	2cc
1F	1f	1A	1a	1cc
2F	2f	2A	2a	2cc
=35	=35	=35	=35	=35
2F	2c	2A	2a	2ff
2F	2d	2A	2a	2ff
2C	2e	1c	2g	2ee
2C	2g	.	2e	2ee
=36	=36	=36	=36	=36
1D	1f	2A	1a	1dd
.	.	2d	.	.
2A	2e	2c#	2a	2ee
[2D	[2f#	[2d	[2a	[2dd
=37	=37	=37	=37	=37
2D]	2f#]	2d]	2a]	2dd]
2G	2g	2d	2b	2dd
2.C	2.g	2.c	2.cc	2.ee
4C	4g	4c	4cc	4ee
=38	=38	=38	=38	=38
2C	2g	2c	1cc	2ee
4F	1a	4A	.	1ff
4G	.	4B	.	.
4A	.	4c	1cc	.
4B	.	4d	.	.
[2c	4g	4e	.	4ee
.	4f	4f	.	4dd
=39	=39	=39	=39	=39
2c]	2e	2g	2cc	2ee
2C	2g	2e	2cc	2cc
[1G	1g	1d	1b	[1dd
=40	=40	=40	=40	=40
1G]	2r	2r	2r	1dd]
.	2d	2B	2g	.
1r	2c	2e	2g	1r
.	2B	2d	2g	.
=41	=41	=41	=41	=41
0r	1c	1e	2a	0r
.	.	.	1g	.
.	2B	2d	.	.
.	2A	2c	2f#	.
=42	=42	=42	=42	=42
2r	1G	2d	2g	2r
2G	.	2g	2b	2dd
2A	1r	2f	2a	2dd
2A	.	2e	2a	2cc#
=43	=43	=43	=43	=43
1D	0r	1f	1a	1dd
2E	.	2e	2g	2cc
2G	.	2d	2g	2b
=44	=44	=44	=44	=44
1A	1r	1c	1e	1cc
2G	2r	2d	2g	2b
2G	2B	2d	2g	2dd
=45	=45	=45	=45	=45
1G	1d	1B	1g	2dd
.	.	.	.	2g
1C	2.e	1c	2g	4gg
.	.	.	.	4ff
.	.	.	4c	4ee
.	4f	.	4d	4dd
=46	=46	=46	=46	=46
1C	2g	1c	4e	4cc
.	.	.	4f	4dd
.	2G	.	1g	2ee
1D	1d	1A	.	1dd
.	.	.	2f#	.
=47	=47	=47	=47	=47
1G	1d	1G	1g	1b
1r	1r	1r	1r	1r
=48	=48	=48	=48	=48
1G	1d	1B	1g	1b
2G	2d	2B	2g	2dd
2G	2g	2B	2g	2dd
=49	=49	=49	=49	=49
1D	1f#	1d	1a	1dd
1G	1g	1d	1b	1dd
=50	=50	=50	=50	=50
2C	2g	1c	2cc	0ee
2c	2e	.	2g	.
2c	2e	2r	1g	.
2c	2e	2c	.	.
=51	=51	=51	=51	=51
1A	1f	2c	2a	0r
.	.	2c	2a	.
1G	1g	2d	1b-	.
.	.	2e	.	.
=52	=52	=52	=52	=52
1F	2c	1f	2a	2r
.	1f	.	1a	1cc
1r	.	2.c	.	.
.	2e	.	2g	2cc
.	.	4c	.	.
=53	=53	=53	=53	=53
0r	2a	2f	2f	2cc
.	2g	2e	2g	2cc
.	2f	2d	2a	2dd
.	2f	2d	2b	2dd
=54	=54	=54	=54	=54
1r	1g	1c	1cc	1ee
1C	1c	1g	1cc	1ee
=55	=55	=55	=55	=55
1G	1d	1g	1b	1dd
1G	1B	1d	1g	1g
=56	=56	=56	=56	=56
1D	1A	1d	1f#	1a
1D	1A	1d	1f#	1a
=57	=57	=57	=57	=57
0G	0G	0d	0g	0b
*	*	*	*	*-
!! Crucifixus
*Itenor	*Icalto	*Icant	*Icant
!Tenor	!Altus	!Cantus 2	!Cantus 1
*clefGv2	*clefG2	*clefG2	*clefG2
*k[]	*k[]	*k[]	*k[]
*G:mix	*G:mix	*G:mix	*G:mix
*M4/2	*M4/2	*M4/2	*M4/2
=58	=58	=58	=58
0r	0g	1r	0r
.	.	1dd	.
=59	=59	=59	=59
0r	1cc	1ee	0r
.	1a	1ff#	.
=60	=60	=60	=60
0r	1g	2gg	0r
.	.	4gg	.
.	.	4ff	.
.	1a	4ee	.
.	.	4dd	.
.	.	2cc	.
=61	=61	=61	=61
0r	2g	2b	0r
.	2a	1cc	.
.	2a	.	.
.	[2g	2b	.
=62	=62	=62	=62
0d	2g]	1a	1r
.	4f#	.	.
.	4e	.	.
.	2f#	1dd	1a
.	2f#	.	.
=63	=63	=63	=63
1g	2r	2r	1b
.	1g	2dd	.
1e	.	1ee	1cc#
.	2g	.	.
=64	=64	=64	=64
1d	1a	1ff#	2dd
.	.	.	4dd
.	.	.	4cc
1e	2g	1gg	4b
.	.	.	4a
.	2cc	.	[2g
=65	=65	=65	=65
1d	2b	2r	2g]
.	2.a	1dd	2f#
2B	.	.	1g
.	4g	.	.
2c	[2g	2ee	.
=66	=66	=66	=66
1A	4g]	2.cc	2a
.	8f#	.	.
.	8e	.	.
.	2f#	.	1cc
.	.	4cc	.
[1G	1g	2ee	.
.	.	2dd	2b
=67	=67	=67	=67
1G]	2r	2r	2r
.	2g	2b	2dd
1r	2.g	2b	2dd
.	.	2g	2b
.	4e	.	.
=68	=68	=68	=68
0r	2f#	2a	2dd
.	2g	2b	2dd
.	1c	1cc	1ee
=69	=69	=69	=69
2r	2g	2b	1dd
2g	2b	1dd	.
2f#	2a	.	1r
[2g	[2b	2dd	.
=70	=70	=70	=70
4g]	4b]	1b	1gg
4f#	4a	.	.
2e	2g	.	.
2d	2a	1dd	2ff#
4g	[2b	.	[2gg
4f	.	.	.
=71	=71	=71	=71
4e	2b]	1.ee	4gg]
4d	.	.	4ff
1c	4cc	.	4ee
.	4b	.	4dd
.	4a	.	2cc
.	4g	.	.
2G	[2g	2dd	2b
=72	=72	=72	=72
1d	4g]	1dd	2a
.	8f#	.	.
.	8e	.	.
.	2f#	.	2a
2r	1g	2r	2b
2g	.	2b	2dd
=73	=73	=73	=73
2f#	0r	2a	2dd
2g	.	2b	2dd
2e	.	2cc	2ee
2d	.	2dd	2ff
=74	=74	=74	=74
1c	0r	2.ee	2.gg
.	.	4dd	4ff
2c	.	2cc	2ee
2d	.	[2b	[2dd
=75	=75	=75	=75
1f	0r	4b]	4dd]
.	.	4a	4cc
.	.	1a	4cc
.	.	.	8b
.	.	.	8a
1e	.	.	1b
.	.	2g#	.
=76	=76	=76	=76
2r	2r	2a	2a
2A	2a	2ee	2cc
2e	2g#	2ee	2b
2A	2a	2ee	2cc
=77	=77	=77	=77
2.d	2.f	2.a	0dd
4e	4e	4g	.
2f#	2d	2a	.
[2g	8G	2b	.
.	8A	.	.
.	8B	.	.
.	8c	.	.
=78	=78	=78	=78
2g]	1d	1a	1dd
2f#	.	.	.
1g	1G	2r	2b
.	.	2dd	2b
=79	=79	=79	=79
0r	0r	2ee	2cc
.	.	2ff	2dd
.	.	2gg	2ee
.	.	2dd	2ff
=80	=80	=80	=80
0r	1r	4ee	4gg
.	.	4ff	4ff
.	.	4gg	4ee
.	.	4ff	4dd
.	2r	4ee	4cc
.	.	4dd	4dd
.	2e	[2cc	4ee
.	.	.	4cc
=81	=81	=81	=81
0r	2f	2cc]	2.dd
.	2g	2b	.
.	.	.	4ee
.	2a	2cc	2ff
.	2b	[2dd	[2gg
=82	=82	=82	=82
0r	1cc	4dd]	4gg]
.	.	4cc	4ff
.	.	1cc	2ee
.	1g	.	[1dd
.	.	4b	.
.	.	4a	.
=83	=83	=83	=83
1G	2r	2b	2dd]
.	2g	2dd	2b
2d	2g	2dd	2a
2d	2f#	2dd	2a
=84	=84	=84	=84
1.c	1.g	2.ee	2.cc
.	.	4dd	4dd
.	.	2cc	2ee
2c	2g	[2ee	[2gg
=85	=85	=85	=85
1c	1e	4ee]	4gg]
.	.	4dd	4ff
.	.	1cc	2ee
1G	1g	.	1dd
.	.	2b	.
=86	=86	=86	=86
1c	2g	2r	2r
.	2c	2cc	2ee
1r	2.g	2.b	2.dd
.	4g	4b	4dd
=87	=87	=87	=87
0r	2g	2b	2dd
.	2a	2cc	2cc
.	2g	2dd	2b
.	2f	2dd	2a
=88	=88	=88	=88
2r	2e	2ee	2b
2G	2g	2dd	2b
2.c	2.g	2.ee	2.cc
4c	4g	4ee	4cc
=89	=89	=89	=89
2c	2g	2ee	2cc
2d	2f	2ff	2a
2c	2g	2ee	2cc
2B	2g	4dd	[2dd
.	.	4ee	.
=90	=90	=90	=90
0A	1a	2ff	2dd]
.	.	1ee	4cc#
.	.	.	4b
.	2r	.	1cc#
.	2a	2a	.
=91	=91	=91	=91
0r	2g	2b	1dd
.	2f	2dd	.
.	8e	2g	1r
.	8d	.	.
.	8e	.	.
.	8f	.	.
.	[2g	2b	.
=92	=92	=92	=92
1d	2g]	1a	2r
.	2f#	.	2dd
2e	1g	2r	2cc
2g	.	2dd	2b
=93	=93	=93	=93
2c	2r	1ee	4a
.	.	.	4g
2e	2g	.	1cc
1d	2a	2.ff	.
.	2f	.	2b
.	.	4ff	.
=94	=94	=94	=94
1c	1g	1ee	2cc
.	.	.	1cc
1r	1a	2r	.
.	.	[2cc	2ee
=95	=95	=95	=95
0r	0r	2cc]	2.gg
.	.	2ee	.
.	.	.	4ff
.	.	1gg	4ee
.	.	.	4dd
.	.	.	2ee
=96	=96	=96	=96
0r	2r	2ff	2dd
.	1c	2ee	2cc
.	.	2.gg	2.ee
.	2e	.	.
.	.	8ff	8dd
.	.	8ee	8cc
=97	=97	=97	=97
0r	1g	4dd	4b
.	.	4cc	4a
.	.	4dd	4b
.	.	4ee	4cc
.	2f	2ff	2dd
.	2e	[2gg	[2ee
=98	=98	=98	=98
0r	1g	4gg]	4ee]
.	.	4ff	4dd
.	.	4ee	4gg
.	.	4dd	4ff
.	1a	1cc	4ee
.	.	.	4dd
.	.	.	[2cc
=99	=99	=99	=99
1r	1g	1dd	2cc]
.	.	.	2b
2r	2.a	2.cc	2cc
[2F	.	.	[2a
.	4b	4b	.
=100	=100	=100	=100
2F]	2cc	1a	2a]
2A	1c	.	2cc
1c	.	2r	1ee
.	2e	2g	.
=101	=101	=101	=101
2B	2g	2b	2dd
2A	1a	1cc	2ff
1c	.	.	1ee
.	2g	2b	.
=102	=102	=102	=102
0d	2f#	2a	0dd
.	2.g	2b	.
.	.	1a	.
.	4f#	.	.
.	2f#	.	.
=103	=103	=103	=103
0c	0g	2.cc	2.ee
.	.	4dd	4dd
.	.	1ee	1cc
=104	=104	=104	=104
0G	0g	0dd	0b
*-	*-	*-	*-
!! Et in Spiritum
**kern	**kern	**kern	**kern	**kern
*Ibass	*Itenor	*Itenor	*Icalto	*Icant
!Bassus	!Tenor 2	!Tenor 1	!Altus	!Cantus
*clefF4	*clefGv2	*clefGv2	*clefG2	*clefG2
*k[]	*k[]	*k[]	*k[]	*k[]
*G:mix	*G:mix	*G:mix	*G:mix	*G:mix
*M3/2	*M3/2	*M3/2	*M3/2	*M3/2
=105	=105	=105	=105	=105
1c	1g	1e	1r	1cc
2F	2a	2f	2r	2cc
=106	=106	=106	=106	=106
2.A	2.e	2.c	1r	2.cc
4A	4f#	4c	.	4cc
2G	2g	2d	2r	2b
=107	=107	=107	=107	=107
1F	1c	1f	1r	1a
2A	2c	2e	2r	2cc
=108	=108	=108	=108	=108
2.G	2.d	2.g	1r	2.b
4G	4d	4g	.	4b
2G	2d	2g	2r	2b
=109	=109	=109	=109	=109
2.F	2.f	2.c	2.a	2.cc
4F	4f	4c	4a	4cc
2F	2f	2A	2a	2cc
=110	=110	=110	=110	=110
2D	2f	2A	2a	2dd
1G	1d	1B	1g	1dd
=111	=111	=111	=111	=111
2C	2g	2c	2e	2ee
2r	2e	2c	2cc	2gg
2r	2a	2A	2cc	2ff
=112	=112	=112	=112	=112
1r	1g	1c	1cc	1ee
2r	2g	2G	2b	2dd
=113	=113	=113	=113	=113
1r	1e	1A	1a	1cc
2r	2e	2G#	2b	2b
=114	=114	=114	=114	=114
1r	1e	1A	1cc	1a
2r	2e	2c	2cc	2g
=115	=115	=115	=115	=115
1r	2g	2G	2b	2dd
.	1f#	1d	1a	1dd
2r	.	.	.	.
=116	=116	=116	=116	=116
2r	2g	2G	2b	2dd
2G	2d	2g	2b	2r
2G	2d	2g	2b	2r
=117	=117	=117	=117	=117
1E	1e	1g	1b	1r
2G	2d	2g	2b	2r
=118	=118	=118	=118	=118
2A	2c	2e	2a	1r
2.F	2.A	2.d	2.a	.
.	.	.	.	2r
4F	4A	4d	4a	.
=119	=119	=119	=119	=119
1E	1B	1e	1g#	1r
2r	2r	2r	2r	2r
=120	=120	=120	=120	=120
2.A	2.c#	2.e	2.a	2.ee
4A	4c#	4e	4a	4ee
2A	2c#	2e	2a	2ee
=121	=121	=121	=121	=121
2A	2c#	2e	2a	2ee
1D	1d	1f	1a	1dd
=122	=122	=122	=122	=122
1A	1c#	1e	1a	1ee
2D	2d	2d	2a	2ff#
=123	=123	=123	=123	=123
2.G	2.B	2.d	2.d	2gg
.	.	.	.	2g
4G	4B	4d	4d	.
2G	2B	2d	2g	[2b
=124	=124	=124	=124	=124
2G	2G	2d	2g	4b]
.	.	.	.	4cc
1D	1A	1d	1f#	1dd
=125	=125	=125	=125	=125
2G	2G	2d	2g	2b
2r	2g	2G	2b	2dd
2r	2f#	2d	2a	2dd
=126	=126	=126	=126	=126
1r	1g	1G	1b	1dd
2r	2g	2G	2b	2dd
=127	=127	=127	=127	=127
1r	1g	1c	1cc	1ee
2r	2f#	2d	2a	2dd
=128	=128	=128	=128	=128
1r	2g	2G	2b-	2dd
.	1e	1A	1a	1cc#
2r	.	.	.	.
!! Et unam sanctam
*Ibass	*Itenor	*Itenor	*Icalto	*Icant
!Bassus	!Tenor 2	!Tenor 1	!Altus	!Cantus
*clefF4	*clefGv2	*clefGv2	*clefG2	*clefG2
*k[]	*k[]	*k[]	*k[]	*k[]
*G:mix	*G:mix	*G:mix	*G:mix	*G:mix
*M4/2	*M4/2	*M4/2	*M4/2	*M4/2
=129	=129	=129	=129	=129
2r	2f#	1d	2a	2dd
2d	2f#	.	2a	2dd
2d	2f#	1r	2a	2dd
2d	2f#	.	2a	2dd
=130	=130	=130	=130	=130
1c	1g	0r	1cc	1ee
2G	2g	.	2b	2dd
2B	2d	.	2g	2dd
=131	=131	=131	=131	=131
2.A	2e	1r	2.a	2.cc
.	2f#	.	.	.
4A	.	.	4a	4cc
2G	2g	2r	2d	2b
2G	2G	2d	2g	2b
=132	=132	=132	=132	=132
2G	2B	2d	2g	2b
2G	2B	2d	2g	2b
2.F	2.A	2.f	2.a	2.cc
4F	4A	4f	4a	4cc
=133	=133	=133	=133	=133
2C	2c	2e	2g	2cc
2E	2c	2g	2e	2cc
2.D	2c	2.f	2a	2dd
.	2B	.	2d	2dd
4D	.	4f	.	.
=134	=134	=134	=134	=134
1C	1c	2e	2g	2ee
.	.	2e	2cc	2gg
1r	1r	2.e	2b	2.gg
.	.	.	2g	.
.	.	4d	.	4ff
=135	=135	=135	=135	=135
0r	0r	2c	2a	2ee
.	.	2B	2b	2dd
.	.	2.A	4cc	4ee
.	.	.	4b	4dd
.	.	.	4a	4cc
.	.	8B	4g	4b
.	.	8c	.	.
=136	=136	=136	=136	=136
0r	0r	2d	2f#	2a
.	.	2A	2a	2cc
.	.	2e	2g#	2b
.	.	2e	2g#	2b
=137	=137	=137	=137	=137
2.A	2.e	2r	2.a	2.cc#
.	.	2A	.	.
4A	4e	.	4a	4cc#
2D	2f	2A	2a	2dd
2D	2f	4d	2a	2dd
.	.	4d	.	.
=138	=138	=138	=138	=138
1A	1e	1c#	1a	1ee
1D	2d	1d	1a	1ff
.	[2A	.	.	.
=139	=139	=139	=139	=139
2A	2A]	2e	2cc	2ee
2G#	2B	2e	2b	2ee
1A	1c	1e	[1a	1ee
=140	=140	=140	=140	=140
1E	1B	1e	2a]	1ee
.	.	.	2g#	.
2r	2r	2r	2r	2r
[2A	[2c#	[2e	[2a	[2ee
=141	=141	=141	=141	=141
2A]	2c#]	2e]	2a]	2ee]
2D	2d	2f#	2a	2dd
1G	1B	1g	1d	1dd
=142	=142	=142	=142	=142
1C	1c	1e	1g	1ee
2.c	2.e	1r	2.g	2.cc
4B	4d	.	4g	4dd
=143	=143	=143	=143	=143
2c	2c	0r	2g	2ee
2A	2c	.	2a	2ff
2G	2d	.	2b	2gg
2c	2e	.	[2cc	2g
=144	=144	=144	=144	=144
1.F	1.f	0r	2cc]	2.a
.	.	.	2cc	.
.	.	.	.	4b
.	.	.	2.a	2cc
2F	2f	.	.	2cc
.	.	.	4g	.
=145	=145	=145	=145	=145
1F	1c	1r	1f	1a
1C	1c	2r	2e	2g
.	.	2e	2g	2cc
=146	=146	=146	=146	=146
0r	0r	1c	1cc	1ee
.	.	2g	2b	2dd
.	.	2c	2cc	2ee
=147	=147	=147	=147	=147
0r	0r	2d	2a	2ff
.	.	2e	2g	2ee
.	.	2A	2a	2ee
.	.	2d	2f	2dd
=148	=148	=148	=148	=148
2r	2r	0c	2e	1ee
2A	2c	.	2e	.
1F	1f	.	1a	1r
=149	=149	=149	=149	=149
2c	2e	2r	2g	0r
2F	2f	2c	2a	.
2G	2d	2g	2b-	.
2A	2c	2e	2a	.
=150	=150	=150	=150	=150
2D	2d	2f	2a	1r
2E	2B	2e	2g#	.
1F	2A	[1c	2a	2r
.	4c	.	2f	4a
.	4d	.	.	4b
=151	=151	=151	=151	=151
0C	4e	1c]	4g	4cc
.	4f	.	4f	4dd
.	4g	.	4e	4ee
.	4f	.	4d	4ff
.	4e	2r	2c	4gg
.	4d	.	.	4ff
.	2c	4G	2cc	2ee
.	.	4A	.	.
=152	=152	=152	=152	=152
0G	1d	4B	2.b	2dd
.	.	4c	.	.
.	.	4d	.	4g
.	.	4c	4a	4a
.	4G	4B	2g	4b
.	4A	4A	.	4cc
.	4B	2G	[2g	4dd
.	4c	.	.	4ee
=153	=153	=153	=153	=153
0D	0d	0A	2g]	0dd
.	.	.	4f#	.
.	.	.	4e	.
.	.	.	1f#	.
=154	=154	=154	=154	=154
0G	0d	0G	0g	0b
==	==	==	==	==
*-	*-	*-	*-	*-
!!!CDT: 1525/^1526/-1594/2/2
!!!OCY: Italia
!!!AGN: Mass (Paraphrase)
!!!AST: renaissance, vocal
!!!ASW: Antiphon
!!!PWK: Masses, Book 8
!!!RNB: Cadence finals: C
!!!YOR: Le Opere Complete, v. 24, p. 194
!!!YOO: Rome, Italy: Fratelli Scalera
!!!END: 1992//
!!!EED: John Miller
!!!YEC: Copyright 2000, John Miller
!!!YEN: United States of America
!!!YEM: Rights to all derivative electronic formats reserved.
!!!YEM: Refer to licensing agreement for further details.
!!!YEM: This file must be accompanied by the licensing agreement.
!!!YEM: A copy of the licensing agreement may be found at http://www.music-cog.ohio-state.edu/HumdrumDatabases/Palestrina/license.txt
!!!EMD: converted to Humdrum by Bret Aarden
